actions/symbolic/tools-check-spelling-symbolic.svg

<svg viewBox="0 0 16 16" xmlns="http://www.w3.org/2000/svg"><path d="m7.9999995 4.3999991v6.0619169.754792h.7912561 1.5825124c.742633 0 1.410406-.288559 1.82978-.731205.419374-.442645.601259-1.0058948.593442-1.5567565-.00792-.5508617-.226031-1.0975215-.642896-1.5331697s-1.05154-.731204-1.780326-.731204h-.7912563v-2.2643737zm-4.7475365.7547912v1.5095825h2.299588c-.043678 0 .074141.1290972.074141.070762v.7076168h-.7912561c-1.3577005 0-2.4037331.8377125-2.4232218 1.8633908-.00973.5128386.2528064 1.0214066.6923491 1.3680586s1.0362211.542507 1.7308727.542507h1.5825121.7912561v-.754792-3.7267812c0-.8761556-.6977217-1.5682742-1.6319657-1.5803442h-.024687-2.299588zm6.3300487 3.0191649h.7912563c.333744 0 .490301.1022403.618168.2358723.127868.133632.219582.3343272.222541.5425062.0032.208179-.07786.3922839-.197813.5189189-.119979.1266352-.2799.2358724-.642896.2358724h-.7912563zm-4.7475365.7783785h.7912561v.7547913h-.7912561c-.4109863 0-.6172668-.1099837-.7170758-.1886979-.0998091-.0787142-.1246624-.1343807-.1236338-.1886978.002376-.1086333.0733496-.3773956.8407096-.3773956zm-.7912561 2.4530713-.2719943.283047-1.5825122 1.509582a.3956676.37743335 0 1 0  .5439886.51892l1.3105179-1.250124 1.3105179 1.250124.2719943.283046.2719943-.283046 1.3105178-1.250124 1.3105179 1.250124.2719943.283046.2719942-.283046 1.3105182-1.250124 1.310518 1.250124.271994.283046.271994-.283046 1.582513-1.509583a.3956676.37743335 0 1 0 -.543989-.518919l-1.310518 1.250123-1.310518-1.250123-.271994-.283047-.271995.283047-1.3105174 1.250123-1.3105179-1.250123-.2719943-.283047-.2719942.283047-1.3105179 1.250123-1.3105179-1.250123z" fill="#bebebe"/></svg>

<?xml version="1.0" encoding="UTF-8" standalone="no"?>
<svg
   xmlns:dc="http://purl.org/dc/elements/1.1/"
   xmlns:cc="http://creativecommons.org/ns#"
   xmlns:rdf="http://www.w3.org/1999/02/22-rdf-syntax-ns#"
   xmlns:svg="http://www.w3.org/2000/svg"
   xmlns="http://www.w3.org/2000/svg"
   xmlns:sodipodi="http://sodipodi.sourceforge.net/DTD/sodipodi-0.dtd"
   xmlns:inkscape="http://www.inkscape.org/namespaces/inkscape"
   viewBox="0 0 16 16"
   id="svg3247"
   version="1.1"
   inkscape:version="0.91 r13725"
   sodipodi:docname="tools-check-spelling-symbolic.svg">
  <metadata
     id="metadata3255">
    <rdf:RDF>
      <cc:Work
         rdf:about="">
        <dc:format>image/svg+xml</dc:format>
        <dc:type
           rdf:resource="http://purl.org/dc/dcmitype/StillImage" />
      </cc:Work>
    </rdf:RDF>
  </metadata>
  <sodipodi:namedview
     pagecolor="#ffffff"
     bordercolor="#666666"
     borderopacity="1"
     objecttolerance="10"
     gridtolerance="10"
     guidetolerance="10"
     inkscape:pageopacity="0"
     inkscape:pageshadow="2"
     inkscape:window-width="640"
     inkscape:window-height="480"
     id="namedview3253"
     showgrid="false"
     inkscape:zoom="41.1875"
     inkscape:cx="3.6783005"
     inkscape:cy="8"
     inkscape:current-layer="svg3247" />
  <defs
     id="defs3051">
    <style
       type="text/css"
       id="current-color-scheme">
      .ColorScheme-Text {
        color:#bebebe;
      }
      </style>
  </defs>
  <path
     style="color:#bebebe;fill:currentColor;fill-opacity:1;stroke:none"
     class="ColorScheme-Text"
     d="m 7.9999995,4.3999991 0,6.0619169 0,0.754792 0.7912561,0 1.5825124,0 c 0.742633,0 1.410406,-0.288559 1.82978,-0.731205 C 12.622922,10.042858 12.804807,9.4796082 12.79699,8.9287465 12.78907,8.3778848 12.570959,7.831225 12.154094,7.3955768 11.737229,6.9599286 11.102554,6.6643728 10.373768,6.6643728 l -0.7912563,0 0,-2.2643737 -1.5825122,0 z m -4.7475365,0.7547912 0,1.5095825 2.299588,0 c -0.043678,0 0.074141,0.1290972 0.074141,0.070762 l 0,0.7076168 -0.7912561,0 c -1.3577005,0 -2.4037331,0.8377125 -2.4232218,1.8633908 -0.00973,0.5128386 0.2528064,1.0214066 0.6923491,1.3680586 0.4395427,0.346652 1.0362211,0.542507 1.7308727,0.542507 l 1.5825121,0 0.7912561,0 0,-0.754792 0,-3.7267812 c 0,-0.8761556 -0.6977217,-1.5682742 -1.6319657,-1.5803442 l -0.024687,0 -2.299588,0 z m 6.3300487,3.0191649 0.7912563,0 c 0.333744,0 0.490301,0.1022403 0.618168,0.2358723 0.127868,0.133632 0.219582,0.3343272 0.222541,0.5425062 0.0032,0.208179 -0.07786,0.3922839 -0.197813,0.5189189 -0.119979,0.1266352 -0.2799,0.2358724 -0.642896,0.2358724 l -0.7912563,0 0,-1.5331698 z m -4.7475365,0.7783785 0.7912561,0 0,0.7547913 -0.7912561,0 C 4.4239889,9.707125 4.2177084,9.5971413 4.1178994,9.5184271 4.0180903,9.4397129 3.993237,9.3840464 3.9942656,9.3297293 3.9966416,9.221096 4.0676152,8.9523337 4.8349752,8.9523337 Z M 4.0437191,11.405405 3.7717248,11.688452 2.1892126,13.198034 a 0.3956676,0.37743335 0 1 0 0.5439886,0.51892 L 4.0437191,12.46683 5.354237,13.716954 5.6262313,14 5.8982256,13.716954 7.2087434,12.46683 8.5192613,13.716954 8.7912556,14 9.0632498,13.716954 10.373768,12.46683 11.684286,13.716954 11.95628,14 12.228274,13.716954 13.810787,12.207371 A 0.3956676,0.37743335 0 1 0 13.266798,11.688452 L 11.95628,12.938575 10.645762,11.688452 10.373768,11.405405 10.101773,11.688452 8.7912556,12.938575 7.4807377,11.688452 7.2087434,11.405405 6.9367492,11.688452 5.6262313,12.938575 4.3157134,11.688452 4.0437191,11.405405 Z"
     id="path3251"
     inkscape:connector-curvature="0" />
</svg>
